SVG_Azure_Grouped/Data/SQL Server Registry.svg

<?xml version="1.0" encoding="UTF-8" standalone="no"?>
<!-- Generated by Microsoft Visio, SVG Export SQL Server Registry.svg Page-1 -->

<svg
   xmlns:dc="http://purl.org/dc/elements/1.1/"
   xmlns:cc="http://creativecommons.org/ns#"
   xmlns:rdf="http://www.w3.org/1999/02/22-rdf-syntax-ns#"
   xmlns:svg="http://www.w3.org/2000/svg"
   xmlns="http://www.w3.org/2000/svg"
   xmlns:sodipodi="http://sodipodi.sourceforge.net/DTD/sodipodi-0.dtd"
   xmlns:inkscape="http://www.inkscape.org/namespaces/inkscape"
   width="0.78745586in"
   height="0.70866847in"
   viewBox="0 0 56.696785 51.024198"
   xml:space="preserve"
   class="st10"
   version="1.1"
   id="svg97"
   sodipodi:docname="SQL Server Registry.svg"
   style="font-size:12px;overflow:visible;color-interpolation-filters:sRGB;fill:none;fill-rule:evenodd;stroke-linecap:square;stroke-miterlimit:3"
   inkscape:version="0.92.5 (2060ec1f9f, 2020-04-08)"><metadata
   id="metadata101"><rdf:RDF><cc:Work
       rdf:about=""><dc:format>image/svg+xml</dc:format><dc:type
         rdf:resource="http://purl.org/dc/dcmitype/StillImage" /></cc:Work></rdf:RDF></metadata><sodipodi:namedview
   pagecolor="#ffffff"
   bordercolor="#666666"
   borderopacity="1"
   objecttolerance="10"
   gridtolerance="10"
   guidetolerance="10"
   inkscape:pageopacity="0"
   inkscape:pageshadow="2"
   inkscape:window-width="640"
   inkscape:window-height="480"
   id="namedview99"
   showgrid="false"
   inkscape:zoom="1.4908296"
   inkscape:cx="37.795145"
   inkscape:cy="33.801685"
   inkscape:window-x="0"
   inkscape:window-y="0"
   inkscape:window-maximized="0"
   inkscape:current-layer="svg97" />
	<style
   type="text/css"
   id="style2">
	<![CDATA[
		.st1 {fill:url(#grad0-7);stroke:none;stroke-linecap:butt;stroke-width:33.6866}
		.st2 {fill:#e8e8e8;stroke:none;stroke-linecap:butt;stroke-width:33.6866}
		.st3 {fill:#50e6ff;stroke:none;stroke-linecap:butt;stroke-width:33.6866}
		.st4 {fill:#198ab3;stroke:none;stroke-linecap:butt;stroke-width:33.6866}
		.st5 {fill:url(#grad3-17);stroke:none;stroke-linecap:butt;stroke-width:33.6866}
		.st6 {fill:#ffffff;stroke:none;stroke-linecap:butt;stroke-width:33.6866}
		.st7 {fill:#50e6ff}
		.st8 {stroke:none;stroke-linecap:butt;stroke-width:33.6866}
		.st9 {fill:#32bedd;stroke:none;stroke-linecap:butt;stroke-width:33.6866}
		.st10 {fill:none;fill-rule:evenodd;font-size:12px;overflow:visible;stroke-linecap:square;stroke-miterlimit:3}
	]]>
	</style>

	<defs
   id="Patterns_And_Gradients">
		<linearGradient
   id="grad0-7"
   x1="0"
   y1="69.944703"
   x2="41.271777"
   y2="69.944703"
   gradientTransform="scale(0.9367176,1.0675576)"
   gradientUnits="userSpaceOnUse">
			<stop
   offset="0"
   stop-color="#005ba1"
   stop-opacity="1"
   id="stop4" />
			<stop
   offset="0.07"
   stop-color="#0060a9"
   stop-opacity="1"
   id="stop6" />
			<stop
   offset="0.36"
   stop-color="#0071c8"
   stop-opacity="1"
   id="stop8" />
			<stop
   offset="0.52"
   stop-color="#0078d4"
   stop-opacity="1"
   id="stop10" />
			<stop
   offset="0.64"
   stop-color="#0074cd"
   stop-opacity="1"
   id="stop12" />
			<stop
   offset="0.82"
   stop-color="#006abb"
   stop-opacity="1"
   id="stop14" />
			<stop
   offset="1"
   stop-color="#005ba1"
   stop-opacity="1"
   id="stop16" />
		</linearGradient>
		<radialGradient
   id="grad3-17"
   cx="11.159302"
   cy="154.27776"
   r="16.293972"
   gradientTransform="scale(1.3933969,0.71767062)"
   fx="11.159302"
   fy="154.27776"
   gradientUnits="userSpaceOnUse">
			<stop
   offset="0"
   stop-color="#f2f2f2"
   stop-opacity="1"
   id="stop19" />
			<stop
   offset="0.58"
   stop-color="#eeeeee"
   stop-opacity="1"
   id="stop21" />
			<stop
   offset="1"
   stop-color="#e6e6e6"
   stop-opacity="1"
   id="stop23" />
		</radialGradient>
	</defs>
	<g
   id="g95"
   transform="translate(-33.686728,-33.6901)">
		<title
   id="title27">Page-1</title>
		<g
   id="group18892-1"
   transform="translate(33.6866,-34.0157)">
			<title
   id="title29">SQL Server Registry.18892</title>
			<g
   id="group18893-2">
				<title
   id="title31">g52</title>
				<g
   id="group18894-3">
					<title
   id="title33">g38</title>
					<g
   id="shape18895-4">
						<title
   id="title35">path28</title>
						<path
   d="M 19.35,81.64 C 8.58,81.64 0,78.52 0,74.67 v 37.09 c 0,3.81 8.58,6.93 19.08,6.97 h 0.27 c 10.66,0 19.31,-3.29 19.31,-6.97 V 74.67 c 0,3.85 -8.65,6.97 -19.31,6.97 z"
   class="st1"
   id="path37"
   inkscape:connector-curvature="0"
   style="fill:url(#grad0-7);stroke:none;stroke-width:33.68659973;stroke-linecap:butt" />
					</g>
					<g
   id="shape18896-8"
   transform="translate(0,-37.0842)">
						<title
   id="title40">path30</title>
						<path
   d="m 38.66,111.76 c 0,3.84 -8.65,6.97 -19.31,6.97 C 8.68,118.73 0,115.6 0,111.76 c 0,-3.85 8.58,-6.97 19.35,-6.97 10.76,0 19.31,3.28 19.31,6.97 z"
   class="st2"
   id="path42"
   inkscape:connector-curvature="0"
   style="fill:#e8e8e8;stroke:none;stroke-width:33.68659973;stroke-linecap:butt" />
					</g>
					<g
   id="shape18897-10"
   transform="translate(4.52355,-40.1745)">
						<title
   id="title45">path32</title>
						<path
   d="m 29.65,114.29 c 0,2.43 -6.6,4.44 -14.82,4.44 C 6.6,118.73 0,116.72 0,114.29 c 0,-2.44 6.6,-4.44 14.83,-4.44 8.22,0 14.82,1.97 14.82,4.44 z"
   class="st3"
   id="path47"
   inkscape:connector-curvature="0"
   style="fill:#50e6ff;stroke:none;stroke-width:33.68659973;stroke-linecap:butt" />
					</g>
					<g
   id="shape18898-12"
   transform="translate(7.59427,-40.2074)">
						<title
   id="title50">path34</title>
						<path
   d="M 11.75,115.34 A 36.0893,35.9335 -180 0 0 0,116.98 a 34.6035,34.4541 -180 0 0 11.75,1.75 34.3723,34.224 -180 0 0 11.73,-1.75 35.8582,35.7034 -180 0 0 -11.73,-1.64 z"
   class="st4"
   id="path52"
   inkscape:connector-curvature="0"
   style="fill:#198ab3;stroke:none;stroke-width:33.68659973;stroke-linecap:butt" />
					</g>
					<g
   id="shape18899-14"
   transform="translate(4.68864,-12.7888)">
						<title
   id="title55">path36</title>
						<path
   d="m 26.41,113.2 v -10.12 h -2.7 v 12.39 H 31.1 V 113.2 Z M 4.89,108.21 a 7.4622,7.42999 0 0 1 -1.56,-0.92 1.45282,1.44655 0 0 1 -0.36,-0.99 1.15565,1.15066 0 0 1 0.46,-0.92 2.11319,2.10407 0 0 1 1.29,-0.33 5.1509,5.12866 0 0 1 2.87,0.95 v -2.66 a 8.12257,8.08751 -180 0 0 -3.03,-0.62 4.95279,4.93141 -180 0 0 -3.31,1.01 3.30186,3.2876 -180 0 0 -1.25,2.67 4.0943,4.07663 -180 0 0 2.87,3.65 8.58483,8.54777 0 0 1 1.85,1.05 1.38678,1.38079 0 0 1 0.46,0.98 1.05659,1.05203 0 0 1 -0.49,0.93 2.17923,2.16982 0 0 1 -1.32,0.36 4.88675,4.86565 0 0 1 -3.3,-1.29 v 2.77 a 6.60372,6.57521 -180 0 0 3.3,0.72 5.6792,5.65468 -180 0 0 3.53,-0.99 3.30186,3.2876 -180 0 0 1.29,-2.73 3.03771,3.0246 -180 0 0 -0.73,-2.1 7.29711,7.26561 -180 0 0 -2.57,-1.54 z m 15.52,4.76 a 7.06598,7.03547 -180 0 0 1.12,-3.68 6.90088,6.87109 -180 0 0 -0.76,-3.29 5.48109,5.45742 -180 0 0 -2.08,-2.23 6.10844,6.08207 -180 0 0 -3.11,-1.05 6.33957,6.3122 -180 0 0 -3.3,0.82 5.44807,5.42455 -180 0 0 -2.18,2.46 7.85842,7.8245 -180 0 0 0,6.58 5.6792,5.65468 -180 0 0 2.08,2.23 6.60372,6.57521 -180 0 0 2.94,1.06 l 2.58,2.86 h 3.63 l -3.6,-3.29 a 5.31599,5.29304 -180 0 0 2.68,-2.47 z m -2.81,-0.75 a 2.80658,2.79446 0 0 1 -2.31,1.05 2.74054,2.72871 0 0 1 -2.28,-1.09 4.6226,4.60265 0 0 1 -0.73,-2.89 4.52355,4.50402 0 0 1 0.89,-2.93 2.74054,2.72871 0 0 1 2.32,-1.11 2.67451,2.66296 0 0 1 2.27,1.11 4.75468,4.73415 0 0 1 0.83,2.96 4.49053,4.47114 0 0 1 -0.86,2.9 z"
   class="st5"
   id="path57"
   inkscape:connector-curvature="0"
   style="fill:url(#grad3-17);stroke:none;stroke-width:33.68659973;stroke-linecap:butt" />
					</g>
				</g>
				<g
   id="shape18900-18"
   transform="translate(33.811,-22.9146)">
					<title
   id="title61">path40</title>
					<path
   d="M 13.01,90.95 H 0.96 A 0.957539,0.953405 -180 0 0 0.002461,91.903405 L 0,117.77 a 0.957539,0.953405 -180 0 0 0.957539,0.9534 L 21.86,118.73 a 0.957539,0.953405 -180 0 0 0.957539,-0.9534 L 22.82,100.64 A 0.957539,0.953405 -180 0 0 21.862461,99.686595 L 14.92,99.69 A 0.957539,0.953405 0 0 1 13.962461,98.736595 L 13.97,91.9 a 0.957539,0.953405 -180 0 0 -0.957539,-0.953405 z"
   class="st6"
   id="path63"
   inkscape:connector-curvature="0"
   style="fill:#ffffff;stroke:none;stroke-width:33.68659973;stroke-linecap:butt" />
				</g>
				<g
   id="shape18901-20"
   transform="translate(33.5469,-22.6845)">
					<title
   id="title66">path42</title>
					<path
   d="m 12.84,91.93 v 6.58 a 2.37734,2.36708 -180 0 0 2.38,2.36 h 6.61 v 16.44 H 1.45 V 91.93 h 11.3 z m 0.37,-1.41 H 0.99 A 0.957539,0.953405 -180 0 0 -5.58e-4,91.473405 L 0,117.77 a 0.957539,0.953405 -180 0 0 0.990558,0.9534 L 22.19,118.73 a 0.957539,0.953405 -180 0 0 0.957539,-0.9534 L 23.15,100.35 A 0.957539,0.953405 -180 0 0 22.291517,99.462347 L 15.22,99.46 A 0.957539,0.953405 0 0 1 14.262461,98.506595 L 14.26,91.47 a 0.957539,0.953405 -180 0 0 -0.957539,-0.953405 z"
   class="st7"
   id="path68"
   inkscape:connector-curvature="0"
   style="fill:#50e6ff" />
					<path
   d="m 12.84,91.93 v 6.58 a 2.37734,2.36708 -180 0 0 2.38,2.36 h 6.61 v 16.44 H 1.45 V 91.93 h 11.3 m 0.46,-1.41 H 0.99 A 0.957539,0.953405 -180 0 0 -5.58e-4,91.473405 L 0,117.77 a 0.957539,0.953405 -180 0 0 0.990558,0.9534 L 22.19,118.73 a 0.957539,0.953405 -180 0 0 0.957539,-0.9534 L 23.15,100.35 A 0.957539,0.953405 -180 0 0 22.291517,99.462347 L 15.22,99.46 A 0.957539,0.953405 0 0 1 14.262461,98.506595 L 14.26,91.47 A 0.957539,0.953405 -180 0 0 13.302461,90.516595 L 13.21,90.52"
   class="st8"
   id="path70"
   inkscape:connector-curvature="0"
   style="stroke:none;stroke-width:33.68659973;stroke-linecap:butt" />
				</g>
				<g
   id="shape18902-23"
   transform="translate(47.4807,-41.9498)">
					<title
   id="title73">path44</title>
					<path
   d="M 8.95,118.73 0,109.85 v 7.23 a 1.65093,1.6438 -180 0 0 1.62,1.65 z"
   class="st9"
   id="path75"
   inkscape:connector-curvature="0"
   style="fill:#32bedd;stroke:none;stroke-width:33.68659973;stroke-linecap:butt" />
				</g>
				<g
   id="shape18903-25"
   transform="translate(38.4667,-33.9938)">
					<title
   id="title78">rect46</title>
					<path
   d="m 0,117.84 a 0.891523,0.887674 -180 0 0 0.891502,0.88765 L 12.58,118.73 A 0.891523,0.887674 -180 0 0 13.471502,117.84235 0.891523,0.887674 -180 0 0 12.58,116.95469 L 0.89,116.95 a 0.891523,0.887674 -180 0 0 -0.891502,0.88765 z"
   class="st9"
   id="path80"
   inkscape:connector-curvature="0"
   style="fill:#32bedd;stroke:none;stroke-width:33.68659973;stroke-linecap:butt" />
				</g>
				<g
   id="shape18904-27"
   transform="translate(38.4667,-31.0021)">
					<title
   id="title83">rect48</title>
					<path
   d="m 0,117.84 a 0.891523,0.887674 -180 0 0 0.891502,0.88765 L 12.58,118.73 A 0.891523,0.887674 -180 0 0 13.471502,117.84235 0.891523,0.887674 -180 0 0 12.58,116.95469 L 0.89,116.95 a 0.891523,0.887674 -180 0 0 -0.891502,0.88765 z"
   class="st9"
   id="path85"
   inkscape:connector-curvature="0"
   style="fill:#32bedd;stroke:none;stroke-width:33.68659973;stroke-linecap:butt" />
				</g>
				<g
   id="shape18905-29"
   transform="translate(38.4667,-28.0761)">
					<title
   id="title88">rect50</title>
					<path
   d="m 0,117.9 a 0.825484,0.82192 -180 0 0 0.825465,0.8219 L 6.41,118.73 A 0.825484,0.82192 -180 0 0 7.235465,117.9081 0.825484,0.82192 -180 0 0 6.41,117.0862 L 0.83,117.08 a 0.825484,0.82192 -180 0 0 -0.825465,0.8219 z"
   class="st9"
   id="path90"
   inkscape:connector-curvature="0"
   style="fill:#32bedd;stroke:none;stroke-width:33.68659973;stroke-linecap:butt" />
				</g>
			</g>
		</g>
	</g>
</svg>

<?xml version="1.0" encoding="UTF-8" standalone="no"?>
<!DOCTYPE svg PUBLIC "-//W3C//DTD SVG 1.1//EN" "http://www.w3.org/Graphics/SVG/1.1/DTD/svg11.dtd">
<!-- Generated by Microsoft Visio, SVG Export SQL Server Registry.svg Page-1 -->
<svg xmlns="http://www.w3.org/2000/svg" xmlns:xlink="http://www.w3.org/1999/xlink" xmlns:ev="http://www.w3.org/2001/xml-events"
		width="1.72314in" height="1.64897in" viewBox="0 0 124.066 118.726" xml:space="preserve" color-interpolation-filters="sRGB"
		class="st10">
	<style type="text/css">
	<![CDATA[
		.st1 {fill:url(#grad0-7);stroke:none;stroke-linecap:butt;stroke-width:33.6866}
		.st2 {fill:#e8e8e8;stroke:none;stroke-linecap:butt;stroke-width:33.6866}
		.st3 {fill:#50e6ff;stroke:none;stroke-linecap:butt;stroke-width:33.6866}
		.st4 {fill:#198ab3;stroke:none;stroke-linecap:butt;stroke-width:33.6866}
		.st5 {fill:url(#grad3-17);stroke:none;stroke-linecap:butt;stroke-width:33.6866}
		.st6 {fill:#ffffff;stroke:none;stroke-linecap:butt;stroke-width:33.6866}
		.st7 {fill:#50e6ff}
		.st8 {stroke:none;stroke-linecap:butt;stroke-width:33.6866}
		.st9 {fill:#32bedd;stroke:none;stroke-linecap:butt;stroke-width:33.6866}
		.st10 {fill:none;fill-rule:evenodd;font-size:12px;overflow:visible;stroke-linecap:square;stroke-miterlimit:3}
	]]>
	</style>

	<defs id="Patterns_And_Gradients">
		<linearGradient id="grad0-7" x1="0" y1="0" x2="1" y2="0" gradientTransform="rotate(0 0.5 0.5)">
			<stop offset="0" stop-color="#005ba1" stop-opacity="1"/>
			<stop offset="0.07" stop-color="#0060a9" stop-opacity="1"/>
			<stop offset="0.36" stop-color="#0071c8" stop-opacity="1"/>
			<stop offset="0.52" stop-color="#0078d4" stop-opacity="1"/>
			<stop offset="0.64" stop-color="#0074cd" stop-opacity="1"/>
			<stop offset="0.82" stop-color="#006abb" stop-opacity="1"/>
			<stop offset="1" stop-color="#005ba1" stop-opacity="1"/>
		</linearGradient>
		<radialGradient id="grad3-17" cx="0.5" cy="0.5" r="0.73">
			<stop offset="0" stop-color="#f2f2f2" stop-opacity="1"/>
			<stop offset="0.58" stop-color="#eeeeee" stop-opacity="1"/>
			<stop offset="1" stop-color="#e6e6e6" stop-opacity="1"/>
		</radialGradient>
	</defs>
	<g>
		<title>Page-1</title>
		<g id="group18456-1" transform="translate(33.6866,-34.0157)">
			<title>SQL Server Registry.18456</title>
			<g id="group18457-2">
				<title>g52</title>
				<g id="group18458-3">
					<title>g38</title>
					<g id="shape18459-4">
						<title>path28</title>
						<path d="M19.35 81.64 C8.58 81.64 0 78.52 0 74.67 L0 111.76 C0 115.57 8.58 118.69 19.08 118.73 L19.35 118.73
									 C30.01 118.73 38.66 115.44 38.66 111.76 L38.66 74.67 C38.66 78.52 30.01 81.64 19.35 81.64 Z"
								class="st1"/>
					</g>
					<g id="shape18460-8" transform="translate(0,-37.0842)">
						<title>path30</title>
						<path d="M38.66 111.76 C38.66 115.6 30.01 118.73 19.35 118.73 C8.68 118.73 0 115.6 0 111.76 C0 107.91 8.58
									 104.79 19.35 104.79 C30.11 104.79 38.66 108.07 38.66 111.76 Z" class="st2"/>
					</g>
					<g id="shape18461-10" transform="translate(4.52355,-40.1745)">
						<title>path32</title>
						<path d="M29.65 114.29 C29.65 116.72 23.05 118.73 14.83 118.73 C6.6 118.73 0 116.72 0 114.29 C0 111.85 6.6
									 109.85 14.83 109.85 C23.05 109.85 29.65 111.82 29.65 114.29 Z" class="st3"/>
					</g>
					<g id="shape18462-12" transform="translate(7.59427,-40.2074)">
						<title>path34</title>
						<path d="M11.75 115.34 A36.0893 35.9335 -180 0 0 0 116.98 A34.6035 34.4541 -180 0 0 11.75 118.73 A34.3723
									 34.224 -180 0 0 23.48 116.98 A35.8582 35.7034 -180 0 0 11.75 115.34 Z" class="st4"/>
					</g>
					<g id="shape18463-14" transform="translate(4.68864,-12.7888)">
						<title>path36</title>
						<path d="M26.41 113.2 L26.41 103.08 L23.71 103.08 L23.71 115.47 L31.1 115.47 L31.1 113.2 L26.41 113.2 ZM4.89
									 108.21 A7.4622 7.42999 0 0 1 3.33 107.29 A1.45282 1.44655 0 0 1 2.97 106.3 A1.15565 1.15066
									 0 0 1 3.43 105.38 A2.11319 2.10407 0 0 1 4.72 105.05 A5.1509 5.12866 0 0 1 7.59 106 L7.59 103.34
									 A8.12257 8.08751 -180 0 0 4.56 102.72 A4.95279 4.93141 -180 0 0 1.25 103.73 A3.30186 3.2876
									 -180 0 0 0 106.4 A4.0943 4.07663 -180 0 0 2.87 110.05 A8.58483 8.54777 0 0 1 4.72 111.1 A1.38678
									 1.38079 0 0 1 5.18 112.08 A1.05659 1.05203 0 0 1 4.69 113.01 A2.17923 2.16982 0 0 1 3.37 113.37
									 A4.88675 4.86565 0 0 1 0.07 112.08 L0.07 114.85 A6.60372 6.57521 -180 0 0 3.37 115.57 A5.6792
									 5.65468 -180 0 0 6.9 114.58 A3.30186 3.2876 -180 0 0 8.19 111.85 A3.03771 3.0246 -180 0 0 7.46
									 109.75 A7.29711 7.26561 -180 0 0 4.89 108.21 ZM20.41 112.97 A7.06598 7.03547 -180 0 0 21.53
									 109.29 A6.90088 6.87109 -180 0 0 20.77 106 A5.48109 5.45742 -180 0 0 18.69 103.77 A6.10844 6.08207
									 -180 0 0 15.58 102.72 A6.33957 6.3122 -180 0 0 12.28 103.54 A5.44807 5.42455 -180 0 0 10.1 106
									 A7.85842 7.8245 -180 0 0 10.1 112.58 A5.6792 5.65468 -180 0 0 12.18 114.81 A6.60372 6.57521
									 -180 0 0 15.12 115.87 L17.7 118.73 L21.33 118.73 L17.73 115.44 A5.31599 5.29304 -180 0 0 20.41
									 112.97 ZM17.6 112.22 A2.80658 2.79446 0 0 1 15.29 113.27 A2.74054 2.72871 0 0 1 13.01 112.18
									 A4.6226 4.60265 0 0 1 12.28 109.29 A4.52355 4.50402 0 0 1 13.17 106.36 A2.74054 2.72871 0 0
									 1 15.49 105.25 A2.67451 2.66296 0 0 1 17.76 106.36 A4.75468 4.73415 0 0 1 18.59 109.32 A4.49053
									 4.47114 0 0 1 17.73 112.22 L17.6 112.22 Z" class="st5"/>
					</g>
				</g>
				<g id="shape18464-18" transform="translate(33.811,-22.9146)">
					<title>path40</title>
					<path d="M13.01 90.95 L0.96 90.95 a0.957539 0.953405 -180 0 0 -0.957539 0.953405 L0 117.77 a0.957539 0.953405
								 -180 0 0 0.957539 0.953405 L21.86 118.73 a0.957539 0.953405 -180 0 0 0.957539 -0.953405 L22.82 100.64
								 a0.957539 0.953405 -180 0 0 -0.957539 -0.953405 L14.92 99.69 a0.957539 0.953405 0 0 1 -0.957539
								 -0.953405 L13.97 91.9 a0.957539 0.953405 -180 0 0 -0.957539 -0.953405 Z" class="st6"/>
				</g>
				<g id="shape18465-20" transform="translate(33.5469,-22.6845)">
					<title>path42</title>
					<path d="M12.84 91.93 L12.84 98.51 A2.37734 2.36708 -180 0 0 15.22 100.87 L21.83 100.87 L21.83 117.31 L1.45 117.31
								 L1.45 91.93 L12.75 91.93 L12.84 91.93 ZM13.21 90.52 L0.99 90.52 a0.957539 0.953405 -180 0 0 -0.990558
								 0.953405 L0 117.77 a0.957539 0.953405 -180 0 0 0.990558 0.953405 L22.19 118.73 a0.957539 0.953405
								 -180 0 0 0.957539 -0.953405 L23.15 100.35 a0.957539 0.953405 -180 0 0 -0.858483 -0.887653 L15.22
								 99.46 a0.957539 0.953405 0 0 1 -0.957539 -0.953405 L14.26 91.47 a0.957539 0.953405 -180 0 0 -0.957539
								 -0.953405 L13.21 90.52 Z" class="st7"/>
					<path d="M12.84 91.93 L12.84 98.51 A2.37734 2.36708 -180 0 0 15.22 100.87 L21.83 100.87 L21.83 117.31 L1.45 117.31
								 L1.45 91.93 L12.75 91.93M13.21 90.52 L0.99 90.52 a0.957539 0.953405 -180 0 0 -0.990558 0.953405
								 L0 117.77 a0.957539 0.953405 -180 0 0 0.990558 0.953405 L22.19 118.73 a0.957539 0.953405 -180 0
								 0 0.957539 -0.953405 L23.15 100.35 a0.957539 0.953405 -180 0 0 -0.858483 -0.887653 L15.22 99.46
								 a0.957539 0.953405 0 0 1 -0.957539 -0.953405 L14.26 91.47 a0.957539 0.953405 -180 0 0 -0.957539
								 -0.953405 L13.21 90.52" class="st8"/>
				</g>
				<g id="shape18466-23" transform="translate(47.4807,-41.9498)">
					<title>path44</title>
					<path d="M8.95 118.73 L0 109.85 L0 117.08 A1.65093 1.6438 -180 0 0 1.62 118.73 L8.95 118.73 Z" class="st9"/>
				</g>
				<g id="shape18467-25" transform="translate(38.4667,-33.9938)">
					<title>rect46</title>
					<path d="M0 117.84 a0.891523 0.887674 -180 0 0 0.891502 0.887653 L12.58 118.73 a0.891523 0.887674 -180 0 0 0.891502
								 -0.887653 a0.891523 0.887674 -180 0 0 -0.891502 -0.887653 L0.89 116.95 a0.891523 0.887674 -180 0
								 0 -0.891502 0.887653 Z" class="st9"/>
				</g>
				<g id="shape18468-27" transform="translate(38.4667,-31.0021)">
					<title>rect48</title>
					<path d="M0 117.84 a0.891523 0.887674 -180 0 0 0.891502 0.887653 L12.58 118.73 a0.891523 0.887674 -180 0 0 0.891502
								 -0.887653 a0.891523 0.887674 -180 0 0 -0.891502 -0.887653 L0.89 116.95 a0.891523 0.887674 -180 0
								 0 -0.891502 0.887653 Z" class="st9"/>
				</g>
				<g id="shape18469-29" transform="translate(38.4667,-28.0761)">
					<title>rect50</title>
					<path d="M0 117.9 a0.825484 0.82192 -180 0 0 0.825465 0.821901 L6.41 118.73 a0.825484 0.82192 -180 0 0 0.825465
								 -0.821901 a0.825484 0.82192 -180 0 0 -0.825465 -0.821901 L0.83 117.08 a0.825484 0.82192 -180 0 0
								 -0.825465 0.821901 Z" class="st9"/>
				</g>
			</g>
		</g>
	</g>
</svg>
